app/assets/images/icons/direction.svg

<?xml version="1.0" encoding="UTF-8" standalone="no"?>
<svg width="30px" height="30px" viewBox="0 0 30 30" version="1.1" xmlns="http://www.w3.org/2000/svg" xmlns:xlink="http://www.w3.org/1999/xlink">
    <!-- Generator: Sketch 3.7.2 (28276) - http://www.bohemiancoding.com/sketch -->
    <title>direction</title>
    <desc>Created with Sketch.</desc>
    <defs></defs>
    <g id="Icons" stroke="none" stroke-width="1" fill="none" fill-rule="evenodd">
        <g id="direction" fill="#050505">
            <path d="M7.89415426,20.6220763 L3.57697336,16.3048954 C2.79741183,15.5253339 2.79784253,14.2625439 3.57697336,13.4834131 L13.4834131,3.57697336 C14.2629746,2.79741183 15.5257646,2.79784253 16.3048954,3.57697336 L26.2113352,13.4834131 C26.9908967,14.2629746 26.990466,15.5257646 26.2113352,16.3048954 L16.3048954,26.2113352 C15.5253339,26.9908967 14.2625439,26.990466 13.4834131,26.2113352 L12.7728339,25.500756 C12.3823096,25.1102317 11.7491446,25.1102317 11.3586204,25.500756 C10.9680961,25.8912803 10.9680961,26.5244452 11.3586204,26.9149695 L12.0589687,27.6153179 C13.6247984,29.1811476 16.1671956,29.1774621 17.7293398,27.6153179 L27.6153179,17.7293398 C29.1811476,16.1635101 29.1774621,13.6211129 27.6153179,12.0589687 L17.7293398,2.17299066 C16.1635101,0.607160897 13.6211129,0.610846415 12.0589687,2.17299066 L2.17299066,12.0589687 C0.607160897,13.6247984 0.610846415,16.1671956 2.17299066,17.7293398 L8.17663984,23.732989 C8.56716413,24.1235133 9.20032911,24.1235133 9.5908534,23.732989 C9.78262585,23.5412166 9.88022574,23.2909328 9.88365307,23.0396033 C9.890572,22.9921207 9.89415426,22.9435558 9.89415426,22.8941543 L9.89415426,16.9757465 L9.89415426,15.3941543 C9.89415426,14.5657271 10.5657271,13.8941543 11.3941543,13.8941543 L12.9757465,13.8941543 L17.8941543,13.8941543 L17.8941543,12.3083678 L20.4854758,14.8996894 L17.8941543,17.4910109 L17.8941543,15.8941543 L13.8941543,15.8941543 C13.3418695,15.8941543 12.8941543,16.3418695 12.8941543,16.8941543 C12.8941543,17.446439 13.3418695,17.8941543 13.8941543,17.8941543 L15.8941543,17.8941543 L15.8941543,19.8941543 C15.8941543,20.446439 16.3418695,20.8941543 16.8941543,20.8941543 C17.1710976,20.8941543 17.4217467,20.7815752 17.602834,20.5996846 L23.2941558,14.8941543 L17.6083353,9.19419283 C17.4268403,9.00903399 17.1739131,8.89415426 16.8941543,8.89415426 C16.3418695,8.89415426 15.8941543,9.34186951 15.8941543,9.89415426 L15.8941543,11.8941543 L11.3941543,11.8941543 C9.46115763,11.8941543 7.89415426,13.4611576 7.89415426,15.3941543 L7.89415426,20.6220763 L7.89415426,20.6220763 Z" id="Rectangle-94"></path>
        </g>
    </g>
</svg>

<?xml version="1.0" encoding="UTF-8" standalone="no"?>
<svg width="30" height="30" viewBox="0 0 30 30" xmlns="http://www.w3.org/2000/svg">
  <path d="M7.894 20.622l-4.317-4.317a1.995 1.995 0 0 1 0-2.822l9.906-9.906c.78-.78 2.043-.78 2.822 0l9.906 9.906c.78.78.78 2.043 0 2.822l-9.906 9.906c-.78.78-2.042.78-2.822 0l-.71-.71a1 1 0 1 0-1.414 1.414l.7.7a4.013 4.013 0 0 0 5.67 0l9.886-9.886a4.013 4.013 0 0 0 0-5.67L17.73 2.173a4.013 4.013 0 0 0-5.67 0l-9.886 9.886a4.013 4.013 0 0 0 0 5.67l6.004 6.004a1 1 0 0 0 1.707-.693c.007-.048.01-.096.01-.146v-7.5a1.5 1.5 0 0 1 1.5-1.5h6.5v-1.586l2.591 2.592-2.59 2.591v-1.597h-4a1 1 0 1 0 0 2h2v2a1 1 0 0 0 1.708.706l5.691-5.706-5.686-5.7a1 1 0 0 0-1.714.7v2h-4.5a3.5 3.5 0 0 0-3.5 3.5v5.228z" fill="#050505" fill-rule="evenodd"/>
</svg>
